X:1
T:Leipzig (Psalmodist), LM
T:Leipzig (Psalmodist), LM
T:From the Psalmodist, before 1856
T:Public Domain Courtesy of the Cyber Hymnal™
C:From the Psalmodist, before 1856
Z:Public Domain
Z:Courtesy of the Cyber Hymnal™
%%score ( 1 2 ) ( 3 4 )
L:1/8
Q:1/4=110
M:3/4
K:A
V:1 treble 
V:2 treble 
V:3 bass 
V:4 bass 
V:1
 [CA]2 [Ec]2 [DB]2 | [CA]4 E2 | ([DF][EA]) d2 [Ec]2 x | (c2 B2) z2 | [CA]2 [CA]2 A2 | %5
 (A3 B) [Ec]2 | (cB) [EA]2 [DG]2 | [CA]4 E2 | (e3 d) [Ec]2 | (B3 A) [EG]2 | ([FA]2 [EG]2) [^DF]2 | %11
 E4 z2 | [CA]2 [CA]2 A2 | (A3 B) [Ec]2 | (ed [Ec]2) [DB]2 | [CA]6 |] %16
V:2
 x6 | x4 E2 | x2 (FE) x3 | E4 x2 | x4 (CF) | E4 x2 | E2 x4 | x4 E2 | E4 x2 | E4 x2 | x6 | E4 x2 | %12
 x4 (CF) | E4 x2 | F2 x4 | x6 |] %16
V:3
 [A,,A,]2 A,2 [E,G,]2 | [F,A,]4 [B,,A,]2 | A,3 z G, [A,,A,]2 | (A,2 G,2) z2 | %4
 ([A,C][G,B,]) [F,A,]2 A,2 | ([C,A,]3 [B,,G,]) [A,,A,]2 | (A,D) [E,C]2 [E,B,]2 | [A,,A,]4 E,2 | %8
 (C3 B,) [E,A,]2 | (G,3 F,) E,2 | ([A,,C]2 [B,,B,]2) [B,,A,]2 | [E,G,]4 z2 | %12
 ([A,C][G,B,]) [F,A,]2 A,2 | ([C,A,]3 [B,,G,]) [A,,A,]2 | A,4 [E,G,]2 | [A,,A,]6 |] %16
V:4
 x2 A,2 x2 | x6 | (D,C,) B,,2 x3 | E,4 x2 | x4 (E,D,) | x6 | D,2 x4 | x4 E,2 | E,4 x2 | E,4 E,2 | %10
 x6 | x6 | x4 (E,D,) | x6 | (D,2 E,2) x2 | x6 |] %16

